src/assets/heartCard.svg

<svg width="63" height="57" viewBox="0 0 63 57" fill="none" xmlns="http://www.w3.org/2000/svg">
<path d="M39.1691 1.16327C36.8227 1.78368 33.7298 2.83837 32.3433 3.52082C29.8903 4.69959 29.7837 4.69959 23.9178 2.65225C13.9991 -0.822037 6.21346 0.0465355 1.6274 5.07184C-0.6123 7.55347 -0.505648 14.6882 1.73406 20.3959C6.74672 32.9902 15.2789 41.738 33.5165 53.2155L39.5957 57L42.262 55.0147C45.3549 52.5331 53.6738 41.862 57.3 35.658C66.5788 19.5273 64.3391 4.63755 51.9674 1.16327C46.5281 -0.387753 44.6084 -0.387753 39.1691 1.16327ZM51.1142 4.57551C53.5672 5.56816 56.1268 9.60082 57.1934 14.0678C58.1532 17.7282 56.2335 26.1037 53.0339 32.4318C50.0476 38.3257 39.9157 52.0367 38.5292 52.0367C36.1828 52.0367 23.0646 41.2416 17.8386 34.9755C6.42677 21.5127 3.01389 6.06449 11.1195 4.51347C14.3191 3.9551 19.6517 4.76163 23.0646 6.37469L26.1575 7.86367L24.2377 12.3306C21.1448 19.5273 23.9178 26.538 30.4236 28.3371C32.9832 29.0816 33.8365 29.0196 36.0762 28.151C37.5693 27.5927 39.2757 26.4139 39.809 25.4833C41.7287 22.7535 40.3423 15.5567 37.2493 11.5241C35.7562 9.53878 34.6897 7.61551 35.0096 7.18122C35.9695 5.75429 42.3687 3.6449 45.5682 3.6449C47.3813 3.6449 49.8343 4.07919 51.1142 4.57551ZM33.4099 15.2465C35.0096 18.1004 35.2229 23.2498 33.6232 24.1804C30.8502 25.7935 27.6506 18.6588 29.4637 14.502C30.4236 12.2686 31.8101 12.5788 33.4099 15.2465Z" fill="#FFC6E9"/>
</svg>

<svg xmlns="http://www.w3.org/2000/svg" width="63" height="57" fill="none"><path fill="#FFC6E9" d="M39.17 1.163c-2.347.62-5.44 1.675-6.827 2.358-2.453 1.179-2.56 1.179-8.425-.869C13.999-.822 6.213.047 1.628 5.072c-2.24 2.481-2.134 9.616.106 15.324C6.747 32.99 15.28 41.738 33.517 53.216L39.596 57l2.666-1.985c3.093-2.482 11.412-13.153 15.038-19.357 9.279-16.13 7.04-31.02-5.333-34.495-5.439-1.55-7.359-1.55-12.798 0m11.944 3.413c2.453.992 5.013 5.025 6.08 9.492.96 3.66-.96 12.036-4.16 18.364-2.986 5.894-13.118 19.605-14.505 19.605-2.346 0-15.464-10.795-20.69-17.062C6.427 21.513 3.014 6.065 11.119 4.513c3.2-.558 8.533.249 11.946 1.862l3.092 1.489-1.92 4.467c-3.092 7.196-.32 14.207 6.187 16.006 2.56.745 3.413.683 5.652-.186 1.493-.558 3.2-1.737 3.733-2.668 1.92-2.73.533-9.926-2.56-13.959-1.493-1.985-2.56-3.908-2.24-4.343.96-1.427 7.36-3.536 10.56-3.536 1.812 0 4.265.434 5.545.93M33.41 15.246c1.6 2.854 1.813 8.004.213 8.934-2.773 1.614-5.972-5.521-4.16-9.678.96-2.233 2.347-1.923 3.947.744"/></svg>
